X:1
T:The Angels’ Hymn
T:John David Brunk
T:The Angels’ Hymn
T:Public Domain
T:Public Domain
C:John David Brunk
Z:Public Domain
%%score ( 1 2 ) ( 3 4 )
L:1/8
M:4/4
K:G
V:1 treble 
V:2 treble 
V:3 bass 
V:4 bass 
V:1
 [Gd]2 [GB]2 | [Gd]2 [GB]2 (GF)(GA) | [GB]2 [GB]2 [Fc]2 [FA]2 | [DF]2 D2 (GA)(Bc) | %4
w: 1.~Fear not,|fear not, O * ye *|Ra- ther give ye|thanks and sing, * for *|
w: 2.~For in|yon- der town * of *|Seek ye there with|one ac- cord— * There *|
w: 3.~This the|sign by which * to *|Seek ye, then, be|not a- fraid— * Ye *|
 [Gd]4 [Gd]2 [GB]2 | (ed)(cB) [DA]2 [EG]2 | [FA]2 [DF]2 ([DG][FA])(Bc) | [Gd]2 D2 [DB]2 [CA]2 | %8
w: to all peo-|ple * Tid- * ings of|I bring. “Glo- * ry *|the high- est! Praise|
w: you a Sav-|ior * Which * is ev-|the Lord. * * * *||
w: Babe in Beth-|l’em, * In * a low-|ger laid. * * * *||
 [B,G]6 z2 ||"^Refrain" z4 [GB][GB][GB][GB] | [Ac]2 [Ac]2 z4 | z4 [Fc]2 [Fc]2 | %12
w: crease,|let praise in- crease!”|||
w: ||||
w: ||||
 [GB][GB][GB][GB] [GB]4 | [Gd]2 [GB]2 [Gd][Fc][GB][DA] | [EG]2 [Ge]4 [Ed]>[Ec] | %15
w: |||
w: |||
w: |||
 [DB]2 [B,D]2 [DB]2 [CA]2 | [B,G]4 |] %17
w: ||
w: ||
w: ||
V:2
 x4 | x4 D2 D2 | x8 | x2 D2 D2 D2 | x8 | G2 F2 x4 | x6 G2 | x2 D2 x4 | x8 || x8 | x8 | x8 | x8 | %13
w: |shep- herds,||to you and||great joy|in|in-||||||
w: |Da- vid—||is born to||en Christ||||||||
w: |know Him,||shall find a||ly man-||||||||
 x8 | x8 | x8 | x4 |] %17
w: ||||
w: ||||
w: ||||
V:3
 [G,B,]2 [G,D]2 | [G,B,]2 [G,D]2 [G,B,]2 [G,B,]2 | [G,D]2 [G,D]2 [D,D]2 [F,D]2 | %3
w: ~ ~|~ ~ ~ ~|~ ~ ~ ~|
 [A,D]2 [A,C]2 [G,B,]2 [G,B,]2 | [G,B,]4 [G,B,]2 [G,D]2 | (C[B,D])(A,G,) [F,=C]2 [E,^C]2 | %6
w: ~ ~ ~ ~|~ ~ ~|~ * ~ * ~ ~|
 [D,D]2 [C,D]2 (B,,D,)(G,A,) | [B,D]2 [G,B,]2 [D,G,]2 [D,F,]2 | G,6 z2 || %9
w: ~ ~ ~ * ~ *|~ “Glo- ry, glo-|ry|
 G,2 D,2 [G,D][G,D][E,D][D,D] | [F,D]2 [F,D]2 z2 D,>D, | A,2 F,2 [E,D]2 [D,D]2 | (DDDD D4) | %13
w: the high- est! Un- to God|let praise in- crease!|Glo- ry, glo- ry|in * * * *|
 [B,D]2 [G,D]2 B,[A,D][G,D][F,D] | [E,B,]2 [CE]4 [C,B,]>[C,A,] | [D,G,]2 [D,G,]2 [D,G,]2 [D,F,]2 | %16
w: the high- est! Un- to men|will and peace!” *||
 G,4 |] %17
w: |
V:4
 x4 | x8 | x8 | x8 | x8 | ^C D2 x5 | x4 D2 D2 | x8 | G,6 x2 || x8 | x8 | x8 | x8 | x4 B, x3 | x8 | %15
w: |||||~ ~|~ ~||in|||||good-||
 x8 | G,4 |] %17
w: ||

